X: 1
T: Schottis
O: A.14
R: shottish
Z: 2017 John Chambers <jc:trillian.mit.edu>
S: handwritten MS of unknown origin, labelled "A.14".
M: 2/4
L: 1/16
K: D
|:\
"D"ABAG F2A2 | dcde f2f2 | "A7"efec A2A2 | "(D)"fgfe "D"d2d2 |\
"D"ABAG F2A2 | dcde f2f2 | "A7"efec A2Bc | "D"d2d2d2 :|
|:\
"G"g2gg g2ag | "D"f2{g}fd A4 | "A7"e2{f}ec A2Bc | "D"d>cdf "(A7)"a4 |\
"G"g2gg g2ag | "D"f2fd A4 | "A7"efec A2Bc | "D"d2d2d2 :|
